svg/fluentui-system-icons/ic_fluent_briefcase_20_regular.svg

<svg width="20" height="20" viewBox="0 0 20 20" fill="none" xmlns="http://www.w3.org/2000/svg">
<path d="M7 5V3.75C7 2.7835 7.7835 2 8.75 2H11.25C12.2165 2 13 2.7835 13 3.75V5H14.5C15.8807 5 17 6.11929 17 7.5V13.5C17 14.8807 15.8807 16 14.5 16H5.5C4.11929 16 3 14.8807 3 13.5V7.5C3 6.11929 4.11929 5 5.5 5H7ZM8 3.75V5H12V3.75C12 3.33579 11.6642 3 11.25 3H8.75C8.33579 3 8 3.33579 8 3.75ZM5.5 6C4.67157 6 4 6.67157 4 7.5V8.5C4 9.32843 4.67157 10 5.5 10H9V9.5C9 9.22386 9.22386 9 9.5 9H10.5C10.7761 9 11 9.22386 11 9.5V10H14.5C15.3284 10 16 9.32843 16 8.5V7.5C16 6.67157 15.3284 6 14.5 6H5.5ZM14.5 11H11V11.5C11 11.7761 10.7761 12 10.5 12H9.5C9.22386 12 9 11.7761 9 11.5V11H5.5C4.9372 11 4.41783 10.814 4 10.5002V13.5C4 14.3284 4.67157 15 5.5 15H14.5C15.3284 15 16 14.3284 16 13.5V10.5002C15.5822 10.814 15.0628 11 14.5 11Z" fill="#212121"/>
</svg>

<svg xmlns="http://www.w3.org/2000/svg" width="20" height="20"><path d="M7 5V3.75C7 2.784 7.784 2 8.75 2h2.5c.966 0 1.75.784 1.75 1.75V5h1.5A2.5 2.5 0 0 1 17 7.5v6a2.5 2.5 0 0 1-2.5 2.5h-9A2.5 2.5 0 0 1 3 13.5v-6A2.5 2.5 0 0 1 5.5 5H7Zm1-1.25V5h4V3.75a.75.75 0 0 0-.75-.75h-2.5a.75.75 0 0 0-.75.75ZM5.5 6A1.5 1.5 0 0 0 4 7.5v1A1.5 1.5 0 0 0 5.5 10H9v-.5a.5.5 0 0 1 .5-.5h1a.5.5 0 0 1 .5.5v.5h3.5A1.5 1.5 0 0 0 16 8.5v-1A1.5 1.5 0 0 0 14.5 6h-9Zm9 5H11v.5a.5.5 0 0 1-.5.5h-1a.5.5 0 0 1-.5-.5V11H5.5a2.49 2.49 0 0 1-1.5-.5v3A1.5 1.5 0 0 0 5.5 15h9a1.5 1.5 0 0 0 1.5-1.5v-3a2.49 2.49 0 0 1-1.5.5Z"/></svg>
